src/assets/filled/MusicDashboard.svg

<svg width="24" height="24" viewBox="0 0 24 24"  xmlns="http://www.w3.org/2000/svg">
<path d="M7 3.25007V20.7501C7 21.3901 6.39 21.9001 5.77 21.7301C3.37 21.0501 2 19.0901 2 16.1901V7.81007C2 4.91007 3.37 2.95007 5.77 2.27007C6.39 2.10007 7 2.60007 7 3.25007Z" />
<path d="M12.47 14.3701C12.09 14.3701 11.79 14.6801 11.79 15.0501C11.79 15.4201 12.1 15.7301 12.47 15.7301C12.85 15.7301 13.16 15.4201 13.16 15.0501C13.16 14.6801 12.85 14.3701 12.47 14.3701Z" />
<path d="M17.5201 13.45C17.1401 13.45 16.8301 13.76 16.8301 14.14C16.8301 14.52 17.1401 14.82 17.5201 14.82C17.9001 14.82 18.2101 14.51 18.2101 14.14C18.2101 13.77 17.9001 13.45 17.5201 13.45Z" />
<path d="M16.19 2H9.5C8.95 2 8.5 2.45 8.5 3V21C8.5 21.55 8.95 22 9.5 22H16.19C19.4 22 22 19.4 22 16.19V7.81C22 4.6 19.4 2 16.19 2ZM19.6 9.74V14.14C19.6 14.15 19.59 14.16 19.59 14.17C19.57 15.3 18.65 16.21 17.52 16.21C16.38 16.21 15.45 15.28 15.45 14.14C15.45 13 16.38 12.07 17.52 12.07C17.76 12.07 17.99 12.12 18.21 12.2V10.65L14.54 11.65V15.07C14.54 15.08 14.53 15.09 14.53 15.1C14.51 16.23 13.59 17.14 12.46 17.14C11.32 17.14 10.39 16.21 10.39 15.07C10.39 13.93 11.32 13 12.46 13C12.7 13 12.93 13.05 13.15 13.13V11.13V9.5C13.15 8.64 13.68 7.94 14.51 7.73L17.26 6.97C18.12 6.74 18.65 6.97 18.95 7.2C19.38 7.53 19.59 8.05 19.59 8.75V9.74H19.6Z" />
</svg>

<?xml version="1.0" encoding="UTF-8"?>
<svg width="24" height="24" viewBox="0 0 24 24" xmlns="http://www.w3.org/2000/svg">
 <path d="m7 3.2501v17.5c0 0.64-0.61 1.15-1.23 0.98-2.4-0.68-3.77-2.64-3.77-5.54v-8.38c0-2.9 1.37-4.86 3.77-5.54 0.62-0.17 1.23 0.33 1.23 0.98z"/>
 <path d="m12.47 14.37c-0.38 0-0.68 0.31-0.68 0.68s0.31 0.68 0.68 0.68c0.38 0 0.69-0.31 0.69-0.68s-0.31-0.68-0.69-0.68z"/>
 <path d="m17.52 13.45c-0.38 0-0.69 0.31-0.69 0.69s0.31 0.68 0.69 0.68 0.69-0.31 0.69-0.68-0.31-0.69-0.69-0.69z"/>
 <path d="m16.19 2h-6.69c-0.55 0-1 0.45-1 1v18c0 0.55 0.45 1 1 1h6.69c3.21 0 5.81-2.6 5.81-5.81v-8.38c0-3.21-2.6-5.81-5.81-5.81zm3.41 7.74v4.4c0 0.01-0.01 0.02-0.01 0.03-0.02 1.13-0.94 2.04-2.07 2.04-1.14 0-2.07-0.93-2.07-2.07s0.93-2.07 2.07-2.07c0.24 0 0.47 0.05 0.69 0.13v-1.55l-3.67 1v3.42c0 0.01-0.01 0.02-0.01 0.03-0.02 1.13-0.94 2.04-2.07 2.04-1.14 0-2.07-0.93-2.07-2.07s0.93-2.07 2.07-2.07c0.24 0 0.47 0.05 0.69 0.13v-3.63c0-0.86 0.53-1.56 1.36-1.77l2.75-0.76c0.86-0.23 1.39 0 1.69 0.23 0.43 0.33 0.64 0.85 0.64 1.55v0.99h0.01z"/>
</svg>
